symbols/web/change_circle/materialsymbolsrounded/change_circle_wght200grad200_24px.svg

<svg xmlns="http://www.w3.org/2000/svg" height="24" width="24"><path d="M15.675 14.125q.325.15.575.025.25-.125.35-.425.175-.45.263-.875.087-.425.087-.85 0-.975-.35-1.875T15.525 8.5q-.6-.6-1.6-.95t-2.05-.45l.575-.55q.175-.2.187-.488.013-.287-.187-.512-.2-.175-.5-.175t-.5.175L9.625 7.425q-.2.2-.212.412-.013.213.162.388l1.85 1.875q.2.2.488.187.287-.012.512-.187.2-.225.2-.513 0-.287-.2-.512l-.55-.55q.95.1 1.613.338.662.237 1.037.637.525.525.787 1.175.263.65.263 1.325 0 .3-.062.6-.063.3-.163.675-.1.25 0 .475.1.225.325.375Zm-4.1 4.325q.2.175.487.175.288 0 .488-.175l1.85-1.875q.2-.2.213-.412.012-.213-.188-.388l-1.85-1.875q-.175-.2-.462-.188-.288.013-.513.188-.225.225-.225.512 0 .288.225.513l.575.55q-.925-.1-1.625-.35-.7-.25-1.05-.625-.55-.525-.8-1.175t-.25-1.3q0-.325.063-.638.062-.312.162-.662.125-.275.013-.537-.113-.263-.388-.388-.25-.1-.5 0t-.35.375q-.15.475-.275.937-.125.463-.125.888 0 .975.35 1.875t1.075 1.65q.6.6 1.6.937 1 .338 2.075.413l-.6.575q-.175.2-.187.488-.013.287.212.512ZM12 21.8q-2.05 0-3.825-.775-1.775-.775-3.1-2.1-1.325-1.325-2.1-3.1Q2.2 14.05 2.2 12q0-2.05.775-3.838.775-1.787 2.1-3.112 1.325-1.325 3.1-2.088Q9.95 2.2 12 2.2q2.05 0 3.838.762 1.787.763 3.112 2.088 1.325 1.325 2.088 3.112Q21.8 9.95 21.8 12t-.762 3.825q-.763 1.775-2.088 3.1-1.325 1.325-3.112 2.1Q14.05 21.8 12 21.8Zm0-9.8Zm0 8.15q3.4 0 5.775-2.375Q20.15 15.4 20.15 12q0-3.4-2.375-5.775Q15.4 3.85 12 3.85q-3.4 0-5.775 2.375Q3.85 8.6 3.85 12q0 3.4 2.375 5.775Q8.6 20.15 12 20.15Z"/></svg>

<svg xmlns="http://www.w3.org/2000/svg" height="24" width="24"><path d="M15.675 14.125Q16 14.275 16.25 14.15Q16.5 14.025 16.6 13.725Q16.775 13.275 16.863 12.85Q16.95 12.425 16.95 12Q16.95 11.025 16.6 10.125Q16.25 9.225 15.525 8.5Q14.925 7.9 13.925 7.55Q12.925 7.2 11.875 7.1L12.45 6.55Q12.625 6.35 12.637 6.062Q12.65 5.775 12.45 5.55Q12.25 5.375 11.95 5.375Q11.65 5.375 11.45 5.55L9.625 7.425Q9.425 7.625 9.413 7.837Q9.4 8.05 9.575 8.225L11.425 10.1Q11.625 10.3 11.913 10.287Q12.2 10.275 12.425 10.1Q12.625 9.875 12.625 9.587Q12.625 9.3 12.425 9.075L11.875 8.525Q12.825 8.625 13.488 8.863Q14.15 9.1 14.525 9.5Q15.05 10.025 15.312 10.675Q15.575 11.325 15.575 12Q15.575 12.3 15.513 12.6Q15.45 12.9 15.35 13.275Q15.25 13.525 15.35 13.75Q15.45 13.975 15.675 14.125ZM11.575 18.45Q11.775 18.625 12.062 18.625Q12.35 18.625 12.55 18.45L14.4 16.575Q14.6 16.375 14.613 16.163Q14.625 15.95 14.425 15.775L12.575 13.9Q12.4 13.7 12.113 13.712Q11.825 13.725 11.6 13.9Q11.375 14.125 11.375 14.412Q11.375 14.7 11.6 14.925L12.175 15.475Q11.25 15.375 10.55 15.125Q9.85 14.875 9.5 14.5Q8.95 13.975 8.7 13.325Q8.45 12.675 8.45 12.025Q8.45 11.7 8.513 11.387Q8.575 11.075 8.675 10.725Q8.8 10.45 8.688 10.188Q8.575 9.925 8.3 9.8Q8.05 9.7 7.8 9.8Q7.55 9.9 7.45 10.175Q7.3 10.65 7.175 11.112Q7.05 11.575 7.05 12Q7.05 12.975 7.4 13.875Q7.75 14.775 8.475 15.525Q9.075 16.125 10.075 16.462Q11.075 16.8 12.15 16.875L11.55 17.45Q11.375 17.65 11.363 17.938Q11.35 18.225 11.575 18.45ZM12 21.8Q9.95 21.8 8.175 21.025Q6.4 20.25 5.075 18.925Q3.75 17.6 2.975 15.825Q2.2 14.05 2.2 12Q2.2 9.95 2.975 8.162Q3.75 6.375 5.075 5.05Q6.4 3.725 8.175 2.962Q9.95 2.2 12 2.2Q14.05 2.2 15.838 2.962Q17.625 3.725 18.95 5.05Q20.275 6.375 21.038 8.162Q21.8 9.95 21.8 12Q21.8 14.05 21.038 15.825Q20.275 17.6 18.95 18.925Q17.625 20.25 15.838 21.025Q14.05 21.8 12 21.8ZM12 12Q12 12 12 12Q12 12 12 12Q12 12 12 12Q12 12 12 12Q12 12 12 12Q12 12 12 12Q12 12 12 12Q12 12 12 12ZM12 20.15Q15.4 20.15 17.775 17.775Q20.15 15.4 20.15 12Q20.15 8.6 17.775 6.225Q15.4 3.85 12 3.85Q8.6 3.85 6.225 6.225Q3.85 8.6 3.85 12Q3.85 15.4 6.225 17.775Q8.6 20.15 12 20.15Z"/></svg>
